src/_includes/_svgs/logo-rolling-stone.svg

<svg width="134px" height="24px" viewBox="0 0 134 24" version="1.1" xmlns="http://www.w3.org/2000/svg" xmlns:xlink="http://www.w3.org/1999/xlink">
    <defs>
        <polygon id="path-1" points="0.0135771429 0.0905142857 36.894528 0.0905142857 36.894528 23.9622994 0.0135771429 23.9622994"></polygon>
    </defs>
    <g id="🥳-Design" stroke="none" stroke-width="1" fill="none" fill-rule="evenodd">
        <g id="RS-logo" transform="translate(0.000000, 0.000000)">
            <path d="M122.249273,16.2916663 L121.890837,18.1553554 L115.510711,18.1553554 L115.821401,16.2916663 C116.799634,16.2916663 116.936311,16.2054514 117.063936,15.360048 L117.756823,10.7714263 C117.875397,9.98779886 117.400197,9.72032914 116.944457,9.72032914 C116.024606,9.72032914 115.060629,10.6865691 114.88933,11.7989897 L114.315922,15.5270469 C114.234459,16.0561029 114.320448,16.2916663 115.414992,16.2916663 L115.128062,18.1553554 L108.65267,18.1553554 L108.98712,16.2916663 C110.152718,16.2916663 110.353433,16.121952 110.468613,15.4077943 L111.233232,10.6759337 C111.286635,10.3462354 111.228706,10.2937371 110.970288,10.2937371 L109.560528,10.2937371 L109.847232,8.66900571 L115.63019,6.183936 L115.797189,6.35093486 L115.534245,7.80889371 C116.598466,6.86664 117.767232,6.207696 119.095077,6.207696 C120.958992,6.207696 121.86685,7.77065143 121.86685,9.43362514 C121.86685,9.823968 121.838338,10.1457463 121.747145,10.7001463 L120.982752,15.360048 C120.854222,16.1432229 120.989767,16.2916663 122.249273,16.2916663" id="Fill-1" fill="currentColor"></path>
            <path d="M98.8554034,6.75757029 L97.7563337,9.09940114 C97.3055726,8.898912 96.7391794,8.83623086 96.44184,8.83623086 L95.1277989,8.83623086 L94.2434743,14.2602994 C94.0850743,15.2335543 94.2719863,15.4077943 94.7693623,15.4077943 C95.3151634,15.4077943 95.8749943,15.1249371 96.8722354,14.2125531 L97.7323474,15.9092434 C96.5484206,17.1707863 95.0361531,18.490032 93.1206446,18.490032 C91.0809051,18.490032 90.1811931,17.3271497 90.1811931,15.4793006 C90.1811931,15.0894103 90.2416114,14.5580914 90.3008983,14.1885669 L91.1610103,8.83623086 L89.6555314,8.86044343 L90.013968,6.80531657 L91.4477143,6.82907657 L91.7821646,4.65469714 L95.7249669,3.05349943 L95.9879109,3.31644343 L95.4384891,6.78133029 L98.8554034,6.75757029" id="Fill-2" fill="currentColor"></path>
            <path d="M91.2087566,0.90288 C90.7561851,2.43415543 90.2355017,4.685472 89.990208,6.23190857 L87.6963497,6.23190857 C87.9077006,5.47023086 87.9758126,4.99503086 87.9828274,4.58296457 C88.0002514,3.58911771 86.8692754,2.95800686 85.18752,2.95800686 C83.4634491,2.95800686 82.3150491,3.83622171 82.2960411,4.94140114 C82.2779383,5.98457829 82.675296,6.42176229 83.9927314,7.35496457 L86.2863634,8.979696 C88.4143543,10.4867589 89.6982994,11.8983291 89.6555314,14.3322583 C89.5853829,18.3802834 86.2085211,20.42568 81.8178994,20.42568 C80.7910149,20.42568 80.0573966,20.1631886 79.356816,19.9952846 C78.7591954,19.8524983 78.1611223,19.6610606 77.5408731,19.6610606 C77.2032549,19.6610606 76.6017874,19.773072 76.2026194,20.0194971 L75.8441829,19.8282857 C75.5706034,17.865936 75.1159954,15.7107909 74.7688731,14.0693143 L77.1584503,13.49568 C77.7875246,16.460928 79.0443154,17.8213577 82.0330971,17.8213577 C83.9911474,17.8213577 85.0411131,16.8709577 85.0680411,15.3356091 C85.0933851,13.8690514 84.3328389,13.259664 82.9411817,12.3486377 C82.3243269,11.9447177 81.7036251,11.5478126 81.1252389,11.1540754 C80.5430057,10.7580754 79.9718606,10.3446514 79.5000549,9.86379429 C78.548976,8.89393371 77.9395886,7.59890057 77.970816,5.80151314 C78.0258034,2.63125029 80.8699886,0.377444571 84.7333646,0.377444571 C86.3476869,0.377444571 87.6037989,0.778875429 89.0581371,0.855133714 C89.5421623,0.880477714 90.3549806,0.769371429 90.8745326,0.639936 L91.2087566,0.90288" id="Fill-3" fill="currentColor"></path>
            <path d="M50.060736,2.83875429 C50.060736,4.33789714 48.4337417,5.65850057 46.7397669,5.65850057 C45.8730926,5.65850057 44.8756251,5.29440686 44.8756251,4.08106286 C44.8756251,2.28344914 46.707408,1.07033143 48.2212594,1.07033143 C49.2200846,1.07033143 50.060736,1.74013714 50.060736,2.83875429" id="Fill-4" fill="currentColor"></path>
            <path d="M49.6785394,6.35116114 L48.2210331,15.1923703 C48.0576549,16.183728 48.0372891,16.2916663 49.463568,16.2916663 L49.1766377,18.1553554 L42.5100343,18.1553554 L42.7967383,16.2916663 C43.8915086,16.2916663 44.2107977,16.026912 44.3022171,15.4315543 L45.0430766,10.6042011 C45.0867497,10.3188549 45.0878811,10.2937371 44.8041189,10.2937371 L43.2746537,10.2937371 L43.5613577,8.66900571 L49.5113143,6.183936 L49.6785394,6.35116114" id="Fill-5" fill="currentColor"></path>
            <path d="M43.7525691,0.807387429 L41.4107383,15.120864 C41.2360457,16.1882537 41.3546194,16.2916663 42.4143154,16.2916663 L42.1276114,18.1553554 L35.6280069,18.1553554 L35.9147109,16.2916663 C37.0572274,16.2916663 37.3382743,16.0705851 37.467936,15.2641029 L39.0928937,5.15637257 C39.1472023,4.81920686 39.1071497,4.774176 38.853936,4.774176 L37.3484571,4.774176 L37.6351611,3.125232 L43.585344,0.640162286 L43.7525691,0.807387429" id="Fill-6" fill="currentColor"></path>
            <path d="M129.823961,9.839808 C129.792281,8.78124343 129.360528,8.47802057 128.748651,8.47802057 C128.046487,8.47802057 127.045173,9.34039543 126.669765,11.249568 L129.823961,9.839808 Z M133.623298,10.4129897 L126.359074,13.758624 C126.506613,15.0007063 127.202441,15.8377371 128.342469,15.8377371 C129.530469,15.8377371 129.94344,15.1640846 129.94344,14.85792 C129.94344,14.6766651 129.880759,14.5589966 129.823961,14.4754971 C129.734352,14.3442514 129.656736,14.2664091 129.656736,14.0930743 C129.656736,13.9690697 129.686832,13.888512 129.752229,13.8063703 C130.059525,13.4230423 130.715979,13.1132571 131.377186,13.1132571 C132.229378,13.1132571 132.978158,13.7511566 132.978158,14.7142286 C132.978158,16.818912 130.921221,18.513792 127.697328,18.513792 C124.524123,18.513792 122.249273,16.5867429 122.249273,12.9462583 C122.249273,9.681408 125.015842,6.15994971 128.653159,6.15994971 C131.698286,6.15994971 133.161223,7.68964114 133.623298,10.4129897 L133.623298,10.4129897 Z" id="Fill-7" fill="currentColor"></path>
            <path d="M105.235755,10.389456 C105.235755,9.07202057 104.800834,8.47779429 104.016981,8.47779429 C102.879669,8.47779429 101.65139,10.8832114 101.65139,14.3080457 C101.65139,15.619824 102.09491,16.1961737 102.870165,16.1961737 C104.074231,16.1961737 105.235755,13.4135383 105.235755,10.389456 M109.369317,11.3450606 C109.369317,14.9344046 106.786491,18.5382309 102.678953,18.5382309 C99.5605097,18.5382309 97.5891086,16.810992 97.5891086,13.1849897 C97.5891086,9.397872 100.356583,6.11220343 104.208192,6.11220343 C107.210777,6.11220343 109.369317,8.00259429 109.369317,11.3450606" id="Fill-8" fill="currentColor"></path>
            <path d="M69.8224937,19.9957371 C69.8224937,19.7248731 69.5701851,19.5413554 68.9859154,19.5413554 C68.3192777,19.5413554 67.334256,19.6373006 66.6445371,19.6373006 C65.4907063,19.6373006 64.5104366,19.4662286 63.6095931,19.01592 C63.1409554,19.3840869 62.8691863,19.8009051 62.8691863,20.40192 C62.8691863,21.1771749 63.8804571,21.81168 64.9955931,21.81168 C67.9536,21.81168 69.8224937,20.7334286 69.8224937,19.9957371 M70.1809303,9.55287771 C70.1809303,8.716752 69.9254537,8.31056914 69.3920983,8.31056914 C68.1699291,8.31056914 67.6483406,10.5679954 67.6483406,11.9186949 C67.6483406,12.8582331 67.8413623,13.2569486 68.48424,13.2569486 C69.559776,13.2569486 70.1809303,10.7951863 70.1809303,9.55287771 M77.6123794,7.593696 C77.6123794,8.35831543 76.9385006,9.29038629 76.2983383,9.29038629 C76.0822354,9.29038629 76.0043931,9.13605943 75.8919291,8.979696 C75.8389783,8.90592686 75.7584206,8.82016457 75.6049989,8.76449829 C75.5072434,8.72897143 75.4097143,8.716752 75.3185211,8.716752 C74.6256343,8.716752 74.1477189,9.50105829 74.1477189,10.1982446 C74.1477189,10.3527977 74.1712526,10.511424 74.1712526,10.6759337 C74.1712526,11.4281074 73.9404411,12.1436229 73.5500983,12.8025669 C72.6669051,14.2956 70.7704046,15.4793006 68.6994377,15.4793006 C67.8929554,15.4793006 67.1333143,15.4037211 66.5250583,15.1686103 C66.4295657,15.2641029 66.3338469,15.46776 66.3338469,15.6462994 C66.3338469,16.134624 66.7162697,16.24392 67.313664,16.24392 C68.5509943,16.24392 69.9707109,16.0524823 71.1127749,16.0524823 C73.0726354,16.0524823 74.4819429,17.021664 74.4819429,18.8244823 C74.4819429,22.0336663 69.2796343,23.9862857 64.7088891,23.9862857 C61.9909714,23.9862857 59.3803131,23.2060526 59.3803131,20.9035954 C59.3803131,19.7633417 60.0358629,18.8783383 61.5307063,18.1553554 L56.1303977,18.1553554 L56.441088,16.2916663 C57.5238651,16.26768 57.6284091,16.1882537 57.7313691,15.5030606 L58.4482423,10.72368 C58.5360411,10.1389577 58.1434354,9.72032914 57.6358766,9.72032914 C56.6967909,9.72032914 55.7398286,10.7752731 55.604736,11.6317646 L54.9831291,15.5747931 C54.9057394,16.0683223 55.0114149,16.2916663 56.0346789,16.2916663 L55.7482011,18.1553554 L49.5590606,18.1553554 L49.8697509,16.2916663 C50.9423451,16.2916663 50.9749303,16.1350766 51.0645394,15.5747931 L51.8529189,10.6519474 C51.9063223,10.3206651 51.850656,10.2937371 51.6141874,10.2937371 L50.0847223,10.2937371 L50.3954126,8.64524571 L56.2976229,6.183936 L56.4888343,6.35093486 L56.2498766,7.78490743 C57.4360663,6.752592 58.6611771,6.183936 59.7387497,6.183936 C61.745904,6.183936 62.5582697,7.56970971 62.5582697,9.576864 C62.5582697,9.75178286 62.5139177,10.194624 62.4867634,10.3652434 L61.6743977,15.4553143 C61.5752846,16.0755634 62.0063589,16.2522926 62.606016,16.2916663 C62.9029029,15.1593326 63.7437806,14.5651063 64.7326491,14.1648069 C64.1569783,13.5468206 63.6095931,12.7014171 63.6095931,11.249568 C63.6095931,8.02952229 66.513744,6.06445714 69.4640571,6.06445714 C70.8129463,6.06445714 72.4747886,6.51838629 73.4066331,7.92837257 C74.07576,6.75757029 75.0078309,6.06445714 76.0111817,6.06445714 C76.9022949,6.06445714 77.6123794,6.63786514 77.6123794,7.593696" id="Fill-9" fill="currentColor"></path>
            <g id="Group-13">
                <mask id="mask-2" fill="white">
                    <use xlink:href="#path-1"></use>
                </mask>
                <g id="Clip-11"></g>
                <path d="M26.237376,10.389456 C26.237376,9.07202057 25.8022286,8.47779429 25.0183749,8.47779429 C23.8815154,8.47779429 22.652784,10.8832114 22.652784,14.3080457 C22.652784,15.619824 23.096304,16.1961737 23.8717851,16.1961737 C25.0756251,16.1961737 26.237376,13.4135383 26.237376,10.389456 M30.3709371,11.3450606 C30.3709371,14.9344046 27.7885646,18.5382309 23.6803474,18.5382309 C20.5623566,18.5382309 18.5665166,16.7150469 18.5665166,13.0894971 C18.5665166,9.38904686 21.3579771,6.11220343 25.2098126,6.11220343 C28.212624,6.11220343 30.3709371,8.00259429 30.3709371,11.3450606" id="Fill-10" fill="currentColor" mask="url(#mask-2)"></path>
                <path d="M15.651504,5.46706286 C15.651504,3.54272914 14.3442514,2.33662629 12.6167863,2.33662629 C11.8759269,2.33662629 11.1590537,2.40835886 10.8246034,2.45610514 L9.62981486,9.816048 C9.84750171,9.83143543 10.2285669,9.816048 10.4184206,9.816048 C13.2662263,9.816048 15.651504,7.95416914 15.651504,5.46706286 M36.894528,0.87912 L34.5049509,15.4553143 C34.4074217,16.0502194 34.4019909,16.2916663 35.5325143,16.2916663 L35.2458103,18.155808 L33.286176,18.155808 C34.6004434,18.6097371 35.4130354,19.4318331 35.4130354,20.4496663 C35.4130354,22.3991177 33.4982057,23.9622994 28.4595017,23.9622994 C19.1535017,23.9622994 13.0057714,19.1356251 10.896336,11.9902011 L9.24761829,12.0619337 L8.53074514,16.5546103 C8.39338971,17.4142697 8.41013486,17.6930537 9.94050514,17.7969189 L10.9918286,17.8686514 L10.5618857,20.0672434 C9.04667657,19.9735611 7.35835886,19.89504 5.68701257,19.899792 C4.159584,19.9043177 2.56064914,19.9808023 1.05132343,20.0672434 L1.40976,17.8686514 C1.80236571,17.8451177 2.07798171,17.8442126 2.34183086,17.8209051 C2.59979657,17.7987291 2.81567314,17.74872 3.03471771,17.6776663 C3.457872,17.5400846 3.80408914,17.2660526 3.89482971,16.7220617 L6.18891429,2.98176686 C5.41162286,3.12907886 4.74634286,3.32753143 4.30123886,3.50788114 C3.79865829,3.71108571 3.22592914,4.21230857 3.22592914,4.58319086 C3.22592914,4.74430629 3.25557257,4.86174857 3.32142171,4.96516114 C3.41080457,5.10545829 3.51263314,5.21973257 3.51263314,5.39533029 C3.51263314,5.52363429 3.46149257,5.59649829 3.39315429,5.68203429 C3.069792,6.085728 2.32237029,6.39890743 1.62495771,6.39890743 C0.826848,6.39890743 0,5.767344 0,4.75018971 C0,2.18637257 3.201264,1.16424 5.25706971,0.759641143 C7.319664,0.353458286 10.2204206,0.0905142857 12.2343634,0.0905142857 C16.9707497,0.0905142857 20.406672,1.56431314 20.406672,5.300064 C20.406672,8.37121371 18.0757029,10.3523451 15.5797714,11.2018217 C17.4774034,17.1259817 22.1196549,21.5727223 28.0773051,21.5727223 C30.3365417,21.5727223 31.1355566,20.6051246 31.1355566,19.660608 C31.1355566,18.6778491 30.3673166,18.155808 29.654064,18.155808 L28.7224457,18.155808 L29.080656,16.2916663 C29.7407314,16.2916663 30.4759337,16.2332846 30.5861349,15.5508069 L32.2825989,5.03689371 C32.3136,4.84658743 32.2393783,4.774176 32.0436411,4.774176 L30.466656,4.774176 L30.77712,3.10169829 L36.7033166,0.687908571 L36.894528,0.87912" id="Fill-12" fill="currentColor" mask="url(#mask-2)"></path>
            </g>
        </g>
    </g>
</svg>

<svg width="134" height="24" viewBox="0 0 134 24" xmlns="http://www.w3.org/2000/svg" xmlns:xlink="http://www.w3.org/1999/xlink">
  <defs>
    <path id="a" d="M.0135771.0905143H36.894528v23.8717851H.0135771z"/>
  </defs>
  <g fill="none" fill-rule="evenodd">
    <path d="M122.249273 16.2916663l-.358436 1.8636891h-6.380126l.31069-1.8636891c.978233 0 1.11491-.0862149 1.242535-.9316183l.692887-4.5886217c.118574-.7836274-.356626-1.0510972-.812366-1.0510972-.919851 0-1.883828.96624-2.055127 2.0786606l-.573408 3.7280572c-.081463.529056.004526.7646194 1.09907.7646194l-.28693 1.8636891h-6.475392l.33445-1.8636891c1.165598 0 1.366313-.1697143 1.481493-.883872l.764619-4.7318606c.053403-.3296983-.004526-.3821966-.262944-.3821966h-1.40976l.286704-1.6247314 5.782958-2.4850697.166999.1669989-.262944 1.4579588c1.064221-.9422537 2.232987-1.6011977 3.560832-1.6011977 1.863915 0 2.771773 1.5629554 2.771773 3.2259291 0 .3903429-.028512.7121212-.119705 1.2665212l-.764393 4.6599017c-.12853.7831749.007015.9316183 1.266521.9316183" fill="#1A1919"/>
    <path d="M98.8554034 6.7575703L97.7563337 9.099401c-.4507611-.2004891-1.0171543-.2631702-1.3144937-.2631702h-1.3140411l-.8843246 5.4240685c-.1584.9732549.028512 1.1474949.525888 1.1474949.5458011 0 1.105632-.2828572 2.1028731-1.1952412l.860112 1.6966903c-1.1839268 1.2615429-2.6961943 2.5807886-4.6117028 2.5807886-2.0397395 0-2.9394515-1.1628823-2.9394515-3.0107314 0-.3898903.0604183-.9212092.1197052-1.2907337l.860112-5.352336-1.5054789.0242125.3584366-2.0551268 1.4337463.02376.3344503-2.1743795 3.9428023-1.6011977.262944.262944-.5494218 3.4648869 3.4169143-.02376" fill="#1A1919"/>
    <path d="M91.2087566.90288c-.4525715 1.5312754-.9732549 3.782592-1.2185486 5.3290286h-2.2938583c.2113509-.7616777.2794629-1.2368777.2864777-1.648944.017424-.9938469-1.113552-1.6249577-2.7953074-1.6249577-1.7240709 0-2.8724709.8782148-2.8914789 1.9833942-.0181028 1.0431772.3792549 1.4803612 1.6966903 2.4135635l2.293632 1.6247314c2.1279909 1.5070629 3.411936 2.9186331 3.369168 5.3525623-.0701485 4.0480251-3.4470103 6.0934217-7.837632 6.0934217-1.0268845 0-1.7605028-.2624914-2.4610834-.4303954-.5976206-.1427863-1.1956937-.334224-1.8159429-.334224-.3376182 0-.9390857.1120114-1.3382537.3584365l-.3584365-.1912114c-.2735795-1.9623497-.7281875-4.1174948-1.0753098-5.7589714l2.3895772-.5736343c.6290743 2.965248 1.8858651 4.3256777 4.8746468 4.3256777 1.9580503 0 3.008016-.9504 3.034944-2.4857486.025344-1.4665577-.7352022-2.0759451-2.1268594-2.9869714-.6168548-.40392-1.2375566-.8008251-1.8159428-1.1945623-.5822332-.396-1.1533783-.809424-1.625184-1.2902811-.9510789-.9698606-1.5604663-2.2648937-1.5292389-4.0622812.0549874-3.1702628 2.8991726-5.4240685 6.7625486-5.4240685 1.6143223 0 2.8704343.4014308 4.3247725.4776891.4840252.025344 1.2968435-.0857623 1.8163955-.2151977l.334224.262944" fill="#1A1919"/>
    <path d="M50.060736 2.8387543c0 1.4991428-1.6269943 2.8197463-3.3209691 2.8197463-.8666743 0-1.8641418-.3640937-1.8641418-1.5774377 0-1.7976138 1.8317829-3.0107315 3.3456343-3.0107315.9988252 0 1.8394766.6698057 1.8394766 1.7684229" fill="#1A1919"/>
    <path d="M49.6785394 6.3511611l-1.4575063 8.8412092c-.1633782.9913577-.183744 1.099296 1.2425349 1.099296l-.2869303 1.8636891h-6.6666034l.286704-1.8636891c1.0947703 0 1.4140594-.2647543 1.5054788-.860112l.7408595-4.8273532c.0436731-.2853462.0448045-.310464-.2389577-.310464h-1.5294652l.286704-1.6247314 5.9499566-2.4850697.1672251.1672251" fill="#1A1919"/>
    <path d="M43.7525691.8073874L41.4107383 15.120864c-.1746926 1.0673897-.0561189 1.1708023 1.0035771 1.1708023l-.286704 1.8636891h-6.4996045l.286704-1.8636891c1.1425165 0 1.4235634-.2210812 1.5532251-1.0275634l1.6249577-10.1077303c.0543086-.3371657.014256-.3821966-.2389577-.3821966h-1.5054789l.286704-1.648944L43.585344.6401623l.1672251.1672251" fill="#1A1919"/>
    <path d="M129.823961 9.839808c-.03168-1.0585646-.463433-1.3617874-1.07531-1.3617874-.702164 0-1.703478.8623748-2.078886 2.7715474l3.154196-1.40976zm3.799337.5731817l-7.264224 3.3456343c.147539 1.2420823.843367 2.0791131 1.983395 2.0791131 1.188 0 1.600971-.6736525 1.600971-.9798171 0-.1812549-.062681-.2989234-.119479-.3824229-.089609-.1312457-.167225-.209088-.167225-.3824228 0-.1240046.030096-.2045623.095493-.286704.307296-.383328.96375-.6931132 1.624957-.6931132.852192 0 1.600972.6378995 1.600972 1.6009715 0 2.1046834-2.056937 3.7995634-5.28083 3.7995634-3.173205 0-5.448055-1.9270491-5.448055-5.5675337 0-3.2648503 2.766569-6.7863086 6.403886-6.7863086 3.045127 0 4.508064 1.5296914 4.970139 4.25304z" fill="#1A1919"/>
    <path d="M105.235755 10.389456c0-1.3174354-.434921-1.9116617-1.218774-1.9116617-1.137312 0-2.365591 2.4054171-2.365591 5.8302514 0 1.3117783.44352 1.888128 1.218775 1.888128 1.204066 0 2.36559-2.7826354 2.36559-5.8067177m4.133562.9556046c0 3.589344-2.582826 7.1931703-6.690364 7.1931703-3.1184433 0-5.0898444-1.7272389-5.0898444-5.3532412 0-3.7871177 2.7674744-7.0727863 6.6190834-7.0727863 3.002585 0 5.161125 1.8903909 5.161125 5.2328572" fill="#1A1919"/>
    <path d="M69.8224937 19.9957371c0-.270864-.2523086-.4543817-.8365783-.4543817-.6666377 0-1.6516594.0959452-2.3413783.0959452-1.1538308 0-2.1341005-.171072-3.034944-.6213806-.4686377.3681669-.7404068.7849851-.7404068 1.386 0 .7752549 1.0112708 1.40976 2.1264068 1.40976 2.9580069 0 4.8269006-1.0782514 4.8269006-1.8159429m.3584366-10.4428594c0-.8361257-.2554766-1.2423086-.788832-1.2423086-1.2221692 0-1.7437577 2.2574263-1.7437577 3.6081258 0 .9395382.1930217 1.3382537.8358994 1.3382537 1.075536 0 1.6966903-2.4617623 1.6966903-3.7040709m7.4314491-1.9591817c0 .7646194-.6738788 1.6966903-1.3140411 1.6966903-.2161029 0-.2939452-.1543269-.4064092-.3106903-.0529508-.0737691-.1335085-.1595314-.2869302-.2151977-.0977555-.0355269-.1952846-.0477463-.2864778-.0477463-.6928868 0-1.1708022.7843063-1.1708022 1.4814926 0 .1545531.0235337.3131794.0235337.4776891 0 .7521737-.2308115 1.4676892-.6211543 2.1266332-.8831932 1.4930331-2.7796937 2.6767337-4.8506606 2.6767337-.8064823 0-1.5661234-.0755795-2.1743794-.3106903-.0954926.0954926-.1912114.2991497-.1912114.4776891 0 .4883246.3824228.5976206.9798171.5976206 1.2373303 0 2.6570469-.1914377 3.7991109-.1914377 1.9598605 0 3.369168.9691817 3.369168 2.772 0 3.209184-5.2023086 5.1618034-9.7730538 5.1618034-2.7179177 0-5.328576-.7802331-5.328576-3.0826903 0-1.1402537.6555498-2.0252571 2.1503932-2.74824h-5.4003086l.3106903-1.8636891c1.0827771-.0239863 1.1873211-.1034126 1.2902811-.7886057l.7168732-4.7793806c.0877988-.5847223-.3048069-1.0033509-.8123657-1.0033509-.9390857 0-1.896048 1.054944-2.0311406 1.9114355l-.6216069 3.9430285c-.0773897.4935292.0282858.7168732 1.0515498.7168732l-.2864778 1.8636891h-6.1891405l.3106903-1.8636891c1.0725942 0 1.1051794-.1565897 1.1947885-.7168732l.7883795-4.9228457c.0534034-.3312823-.0022629-.3582103-.2387315-.3582103h-1.5294651l.3106903-1.6484914 5.9022103-2.4613097.1912114.1669989-.2389577 1.4339725c1.1861897-1.0323154 2.4113005-1.6009714 3.4888731-1.6009714 2.0071543 0 2.81952 1.3857737 2.81952 3.392928 0 .1749189-.044352.61776-.0715063.7883794l-.8123657 5.0900709c-.0991131.6202491.3319612.7969783.9316183.836352.2968869-1.1323337 1.1377646-1.72656 2.1266331-2.1268594-.5756708-.6179863-1.123056-1.4633898-1.123056-2.9152389 0-3.2200457 2.9041509-5.1851109 5.854464-5.1851109 1.3488892 0 3.0107315.4539292 3.942576 1.8639155.6691269-1.1708023 1.6011978-1.8639155 2.6045486-1.8639155.8911132 0 1.6011977.573408 1.6011977 1.5292389" fill="#1A1919"/>
    <g>
      <mask id="b" fill="#fff">
        <use xlink:href="#a"/>
      </mask>
      <path d="M26.237376 10.389456c0-1.3174354-.4351474-1.9116617-1.2190011-1.9116617-1.1368595 0-2.3655909 2.4054171-2.3655909 5.8302514 0 1.3117783.44352 1.888128 1.2190011 1.888128 1.20384 0 2.3655909-2.7826354 2.3655909-5.8067177m4.1335611.9556046c0 3.589344-2.5823725 7.1931703-6.6905897 7.1931703-3.1179908 0-5.1138308-1.823184-5.1138308-5.4487338 0-3.7004502 2.7914605-6.9772937 6.643296-6.9772937 3.0028114 0 5.1611245 1.8903909 5.1611245 5.2328572" fill="#1A1919" mask="url(#b)"/>
      <path d="M15.651504 5.4670629c0-1.9243338-1.3072526-3.1304366-3.0347177-3.1304366-.7408594 0-1.4577326.0717326-1.7921829.1194788L9.6298149 9.816048c.2176868.0153874.598752 0 .7886057 0 2.8478057 0 5.2330834-1.8618789 5.2330834-4.3489851M36.894528.87912l-2.3895771 14.5761943c-.0975292.5949051-.10296.836352 1.0275634.836352l-.286704 1.8641417H33.286176c1.3142674.4539291 2.1268594 1.2760251 2.1268594 2.2938583 0 1.9494514-1.9148297 3.5126331-6.9535337 3.5126331-9.306 0-15.4537303-4.8266743-17.5631657-11.9720983l-1.6487177.0717326-.7168732 4.4926766c-.1373554.8596594-.1206102 1.1384434 1.40976 1.2423086l1.0513235.0717325-.4299429 2.198592c-1.5152091-.0936823-3.2035268-.1722034-4.8748731-.1674514-1.5274286.0045257-3.1263635.0810103-4.6356892.1674514l.3584366-2.198592c.3926057-.0235337.6682217-.0244388.9320709-.0477463.2579657-.022176.4738422-.0721851.6928868-.1432388.4231543-.1375817.7693714-.4116137.860112-.9556046L6.1889143 2.9817669c-.7772914.147312-1.4425714.3457645-1.8876754.5261142-.5025806.2032046-1.0753098.7044275-1.0753098 1.0753098 0 .1611154.0296435.2785577.0954926.3819702.0893829.1402972.1912114.2545715.1912114.4301692 0 .128304-.0511405.201168-.1194788.286704-.3233623.4036937-1.070784.7168731-1.7681966.7168731C.826848 6.3989074 0 5.767344 0 4.7501897 0 2.1863726 3.201264 1.16424 5.2570697.7596411 7.319664.3534583 10.2204206.0905143 12.2343634.0905143c4.7363863 0 8.1723086 1.4737988 8.1723086 5.2095497 0 3.0711497-2.3309691 5.0522811-4.8269006 5.9017577 1.897632 5.92416 6.5398835 10.3709006 12.4975337 10.3709006 2.2592366 0 3.0582515-.9675977 3.0582515-1.9121143 0-.9827589-.76824-1.5048-1.4814926-1.5048h-.9316183l.3582103-1.8641417c.6600754 0 1.3952777-.0583817 1.5054789-.7408594l1.696464-10.5139132c.0310011-.1903063-.0432206-.2627177-.2389578-.2627177H30.466656l.310464-1.6724777L36.7033166.6879086 36.894528.87912" fill="#1A1919" mask="url(#b)"/>
    </g>
  </g>
</svg>
